X: 83
T:Smash the Windows (2nd Violin)
M:6/8
L:1/8
Q:120
C:Traditional
S:Internet  Files
R:Jig
K:D
|:A,B,A, D2 D | F2 A G2 F | E2 G D2 F | C2 D ECA, |A,B,A, D2 D |!
 F2A G2 F | GBA GAG |[1F3AFD:|[2F2 F FAd|| f2 d A2 A | !
d2 e fed | e2c A2 A | c2 d edc |f2 d A2 A | d2 e fed |!
 edc BAG | F2 F FAd|f2dA2A|d2e fed|e2cA2A|!
c2d edc| dcd edc | fed gfe | dcB AGE | F3 F3:|
